X:1
T:He Lives and Reigns
T:He Lives and Reigns
T:Frederick Augustus Fillmore
T:James L. Elderdice, 1917
T:Public Domain Courtesy of the Cyber Hymnal™
T:Public Domain Courtesy of the Cyber Hymnal™
C:Frederick Augustus Fillmore
Z:Public Domain
Z:Courtesy of the Cyber Hymnal™
%%score ( 1 2 ) ( 3 4 )
L:1/8
Q:1/4=110
M:4/4
K:Eb
V:1 treble 
V:2 treble 
V:3 bass 
V:4 bass 
V:1
 [GB]2 | [GB]2 [^F=A]2 [=F_A]2 [EG]2 | [EG]3 [DF] E2 [B,E]2 | [B,D]2 [DF]2 [FA]2 [AB]2 | %4
w: 1.~When|in the grave the|Sav- ior lay, Death|tri- umphed for an|
w: 2.~So|shall the dead in|Christ a- rise, Ac-|cord- ing to His|
w: 3.~Be-|yond the dark- ness|of the tomb, Be-|yond all pain and|
 ([Ac]4 [GB]2) [GB]2 x8 | [GB]2 [^F=A]2 [=F_A]2 [EG]2 | [EG]2 [EF]2 [Ec]2 [Ec]2 | %7
w: hour, * But|soon the Lord of|life a- rose, And|
w: Word, * Pass|far be- yond earth’s|night, to be For-|
w: sin, * There|safe in peace to|rest at home, Heav’n’s|
 [EB]2 E2 [EG]2 [DF]2 | E6 z2 || %9
w: passed be- yond its|power.|
w: ev- er with the|Lord.|
w: gates to pass with-|in.|
"^Refrain" [DFAB]2"^For Men’s or Boys’ Voices" [DFAB]2 [DFAB]2 [DFAB]2 | %10
w: |
w: Yes, he broke death’s|
w: |
 [EGB]2 [EGB]2 ([^F=A]2 [GB]2) | [DFAB]2 [DFAB]2 [DFAB]2 [DFAB]2 | [EGB]2 [EGB]2 ([^F=A]2 [GB]2) | %13
w: |||
w: might- y sway, *|Passed to realms of|end- less day, *|
w: |||
 z2 [Ge][Fd] [Ec]2 [EB]2 | [DA]2 [EG]2 [Bd][Ac][GB][FA] |"^riten." [EG]2 [=EB]2 [FA]2 [^Fc]2 | %16
w: |||
w: Hal- le- lu- jah|to the Sav- ior, For He|lives, He lives to|
w: |||
 [GB]4 [Af]4 | [Ge]6 |] %18
w: ||
w: reign for|aye.|
w: ||
V:2
 x2 | x8 | x4 E2 x2 | x8 | x16 | x8 | x8 | x2 E2 x4 | E6 x2 || x8 | x2 E4 x2 | x8 | x2 E4 x2 | x8 | %14
 x8 | x8 | x8 | x6 |] %18
V:3
 [E,B,]2 | [E,E]2 [E,C]2 [D,B,]2 [E,B,]2 | [B,,B,]3 [B,,A,] [E,G,]2 [G,B,]2 | %3
 [A,B,]2 [F,B,]2 [D,B,]2 [B,,D]2 | [E,E]6 [E,B,]2 [E,E]2 [E,C]2 [D,B,]2 [E,B,]2 | %5
 [A,,C]2 [A,,C]2 [A,,F,]2 [=A,,^F,]2 | [B,,G,]2 [C,G,]2 [B,,B,]2 [B,,A,]2 | [E,G,]6 z2 | %8
 A,2 D,2 G,3 F, || E,2 G,2 (C2 B,2) | (B,A,) D,2 G,3 F, | E,2 G,2 (C2 B,2) | %12
 C3 [G,=B,] (CE) [G,B,]2 | [F,B,]2 [E,E]2 [A,E][A,E][G,E][A,C] | B,2 [G,C]2 [A,C]2 [=A,E]2 | %15
 [B,E]4 [B,,B,]4 | [E,B,]6 x2 | x6 |] %18
V:4
 x2 | x8 | x8 | x8 | x16 | x8 | x8 | x8 | x8 || x8 | x8 | x8 | C3 A,2 x3 | x8 | B,2 x6 | x8 | x8 | %17
 x6 |] %18

